X: 162
T: Erbuliuliu  huangfeng yanshanshan gua
L: 1/16
M: 2/4
K: G
e2 e d B2 A B [I:setbarnb 1]| 
d6g2 | 
e2 e d B2 B A | 
G6E2 | 
G E G A d2 d B | 
A B G AB4 | 
E G E G A2 G E | 
D2> E2D4 |]

@@@ Tune index: 9036
